src/icons/chassis.svg

<svg xmlns="http://www.w3.org/2000/svg" xml:space="preserve" style="fill-rule:evenodd;clip-rule:evenodd;stroke-linejoin:round;stroke-miterlimit:2" viewBox="0 0 315 472"><path d="M456 144c13.255 0 24-10.745 24-24v-16c0-13.255-10.745-24-24-24h-96c-13.255 0-24 10.745-24 24v16c0 13.255 10.745 24 24 24h24v37.784L363.472 216h-98.888l-110.4-15.776L103.2 178.4 97.44 144H120c13.255 0 24-10.745 24-24v-16c0-13.255-10.745-24-24-24H24C10.745 80 0 90.745 0 104v16c0 13.255 10.745 24 24 24h22.56l-6.448 38.688a5 5 0 0 0 0 .616q-.074.345-.112.696v112q.054.352.144.696a5 5 0 0 0 0 .616L46.56 336H24c-13.255 0-24 10.745-24 24v16c0 13.255 10.745 24 24 24h96c13.255 0 24-10.745 24-24v-16c0-13.255-10.745-24-24-24H97.44l5.728-34.4 50.992-21.848L264.584 264h98.888L384 298.216V336h-24c-13.255 0-24 10.745-24 24v16c0 13.255 10.745 24 24 24h96c13.255 0 24-10.745 24-24v-16c0-13.255-10.745-24-24-24h-24V144zM24 128a8 8 0 0 1-8-8v-16a8 8 0 0 1 8-8h96a8 8 0 0 1 8 8v16a8 8 0 0 1-8 8zm62.552 48H57.448l5.328-32h18.448zM120 352a8 8 0 0 1 8 8v16a8 8 0 0 1-8 8H24a8 8 0 0 1-8-8v-16a8 8 0 0 1 8-8zm-62.552-48h29.104l-5.328 32H62.776zM144 266.728 94.4 288H56v-96h38.4l49.6 21.272zm112-17.664-96 13.712v-45.552l96 13.712zM360 248h-88v-16h88zm16 5.784v-27.568L396.528 192H416v96h-19.472zM400 176v-32h16v32zm16 128v32h-16v-32zm40 48a8 8 0 0 1 8 8v16a8 8 0 0 1-8 8h-96a8 8 0 0 1-8-8v-16a8 8 0 0 1 8-8zm-96-224a8 8 0 0 1-8-8v-16a8 8 0 0 1 8-8h96a8 8 0 0 1 8 8v16a8 8 0 0 1-8 8z" style="fill-rule:nonzero" transform="scale(.98225)rotate(-89.957 200.13 280)"/></svg>

<?xml version="1.0" encoding="UTF-8" standalone="no"?>
<!DOCTYPE svg PUBLIC "-//W3C//DTD SVG 1.1//EN" "http://www.w3.org/Graphics/SVG/1.1/DTD/svg11.dtd">
<svg width="100%" height="100%" viewBox="0 0 315 472" version="1.1" xmlns="http://www.w3.org/2000/svg" xmlns:xlink="http://www.w3.org/1999/xlink" xml:space="preserve" xmlns:serif="http://www.serif.com/" style="fill-rule:evenodd;clip-rule:evenodd;stroke-linejoin:round;stroke-miterlimit:2;">
    <g transform="matrix(1,0,0,1,-82.6827,-4.16141)">
        <g transform="matrix(0.000730462,-0.982247,0.982247,0.000730462,4.08545,475.564)">
            <path d="M456,144C469.255,144 480,133.255 480,120L480,104C480,90.745 469.255,80 456,80L360,80C346.745,80 336,90.745 336,104L336,120C336,133.255 346.745,144 360,144L384,144L384,181.784L363.472,216L264.584,216L154.184,200.224L103.2,178.4L97.44,144L120,144C133.255,144 144,133.255 144,120L144,104C144,90.745 133.255,80 120,80L24,80C10.745,80 0,90.745 0,104L0,120C0,133.255 10.745,144 24,144L46.56,144L40.112,182.688C40.1,182.893 40.1,183.099 40.112,183.304C40.063,183.534 40.025,183.766 40,184L40,296C40.036,296.234 40.084,296.467 40.144,296.696C40.132,296.901 40.132,297.107 40.144,297.312L46.56,336L24,336C10.745,336 0,346.745 0,360L0,376C0,389.255 10.745,400 24,400L120,400C133.255,400 144,389.255 144,376L144,360C144,346.745 133.255,336 120,336L97.44,336L103.168,301.6L154.16,279.752L264.584,264L363.472,264L384,298.216L384,336L360,336C346.745,336 336,346.745 336,360L336,376C336,389.255 346.745,400 360,400L456,400C469.255,400 480,389.255 480,376L480,360C480,346.745 469.255,336 456,336L432,336L432,144L456,144ZM24,128C19.582,128 16,124.418 16,120L16,104C16,99.582 19.582,96 24,96L120,96C124.418,96 128,99.582 128,104L128,120C128,124.418 124.418,128 120,128L24,128ZM86.552,176L57.448,176L62.776,144L81.224,144L86.552,176ZM120,352C124.418,352 128,355.582 128,360L128,376C128,380.418 124.418,384 120,384L24,384C19.582,384 16,380.418 16,376L16,360C16,355.582 19.582,352 24,352L120,352ZM57.448,304L86.552,304L81.224,336L62.776,336L57.448,304ZM144,266.728L94.4,288L56,288L56,192L94.4,192L144,213.272L144,266.728ZM256,249.064L160,262.776L160,217.224L256,230.936L256,249.064ZM360,248L272,248L272,232L360,232L360,248ZM376,253.784L376,226.216L396.528,192L416,192L416,288L396.528,288L376,253.784ZM400,176L400,144L416,144L416,176L400,176ZM416,304L416,336L400,336L400,304L416,304ZM456,352C460.418,352 464,355.582 464,360L464,376C464,380.418 460.418,384 456,384L360,384C355.582,384 352,380.418 352,376L352,360C352,355.582 355.582,352 360,352L456,352ZM360,128C355.582,128 352,124.418 352,120L352,104C352,99.582 355.582,96 360,96L456,96C460.418,96 464,99.582 464,104L464,120C464,124.418 460.418,128 456,128L360,128Z" style="fill-rule:nonzero;"/>
        </g>
    </g>
</svg>
